packages/sources/assets/src/assets/flag-bf.svg

<svg width="28" height="20" viewBox="0 0 28 20" fill="none" xmlns="http://www.w3.org/2000/svg">
<rect width="28" height="20" rx="2" fill="white"/>
<mask id="mask0_503_4907" style="mask-type:alpha" maskUnits="userSpaceOnUse" x="0" y="0" width="28" height="20">
<rect width="28" height="20" rx="2" fill="white"/>
</mask>
<g mask="url(#mask0_503_4907)">
<path fill-rule="evenodd" clip-rule="evenodd" d="M0 20H28V10.6667H0V20Z" fill="#00B051"/>
<path fill-rule="evenodd" clip-rule="evenodd" d="M0 10.6667H28V0H0V10.6667Z" fill="#FA494B"/>
<path fill-rule="evenodd" clip-rule="evenodd" d="M14 12.2267L11.6489 13.9027L12.5164 11.1487L10.1958 9.4306L13.0831 9.40461L14 6.66667L14.9169 9.40461L17.8042 9.4306L15.4836 11.1487L16.3511 13.9027L14 12.2267Z" fill="#FDD216"/>
</g>
</svg>

<svg width="28" height="20" fill="none" xmlns="http://www.w3.org/2000/svg"><rect width="28" height="20" rx="2" fill="#fff"/><mask id="a" style="mask-type:alpha" maskUnits="userSpaceOnUse" x="0" y="0" width="28" height="20"><rect width="28" height="20" rx="2" fill="#fff"/></mask><g mask="url(#a)" fill-rule="evenodd" clip-rule="evenodd"><path d="M0 20h28v-9.333H0V20Z" fill="#00B051"/><path d="M0 10.667h28V0H0v10.667Z" fill="#FA494B"/><path d="m14 12.227-2.351 1.676.867-2.754-2.32-1.718 2.887-.026L14 6.667l.917 2.738 2.887.026-2.32 1.718.867 2.754L14 12.227Z" fill="#FDD216"/></g></svg>
